static/icons/sun.svg

<svg xmlns="http://www.w3.org/2000/svg" viewBox="0 0 24 24" width="24" height="24"><path d="M12 18C8.68629 18 6 15.3137 6 12C6 8.68629 8.68629 6 12 6C15.3137 6 18 8.68629 18 12C18 15.3137 15.3137 18 12 18ZM12 16C14.2091 16 16 14.2091 16 12C16 9.79086 14.2091 8 12 8C9.79086 8 8 9.79086 8 12C8 14.2091 9.79086 16 12 16ZM11 1H13V4H11V1ZM11 20H13V23H11V20ZM3.51472 4.92893L4.92893 3.51472L7.05025 5.63604L5.63604 7.05025L3.51472 4.92893ZM16.9497 18.364L18.364 16.9497L20.4853 19.0711L19.0711 20.4853L16.9497 18.364ZM19.0711 3.51472L20.4853 4.92893L18.364 7.05025L16.9497 5.63604L19.0711 3.51472ZM5.63604 16.9497L7.05025 18.364L4.92893 20.4853L3.51472 19.0711L5.63604 16.9497ZM23 11V13H20V11H23ZM4 11V13H1V11H4Z" fill="currentColor"></path></svg>

<svg xmlns="http://www.w3.org/2000/svg" width="24" height="24"><path fill="currentColor" d="M12 18a6 6 0 1 1 0-12 6 6 0 0 1 0 12m0-2a4 4 0 1 0 0-8 4 4 0 0 0 0 8M11 1h2v3h-2zm0 19h2v3h-2zM3.515 4.929l1.414-1.414L7.05 5.636 5.636 7.05zM16.95 18.364l1.414-1.414 2.121 2.121-1.414 1.414zm2.121-14.85 1.414 1.415-2.121 2.121-1.414-1.414zM5.636 16.95l1.414 1.414-2.121 2.121-1.414-1.414zM23 11v2h-3v-2zM4 11v2H1v-2z"/></svg>
